img/brand/brand5.svg

<svg width="90" height="55" viewBox="0 0 90 55" fill="none" xmlns="http://www.w3.org/2000/svg">
<path d="M17.8462 46.878C17.8462 47.0243 17.6923 47.1706 17.5385 47.1706H11.3846C11.5385 48.6341 12.6923 49.9511 14.3077 49.9511C15.3846 49.9511 16.2308 49.5853 16.8462 48.7072C16.9231 48.5609 17.0769 48.4877 17.2308 48.5609C17.3077 48.6341 17.3846 48.7072 17.3846 48.7804C17.3846 48.8536 17.3846 48.9267 17.3077 48.9999C16.6923 50.0243 15.4616 50.5365 14.2308 50.5365C12.1539 50.5365 10.6923 48.7804 10.6923 46.878C10.6923 44.9755 12.1539 43.2194 14.2308 43.2194C16.3846 43.2926 17.8462 45.0487 17.8462 46.878ZM17.2308 46.6584C17.0769 45.195 15.9231 43.878 14.3077 43.878C12.6923 43.878 11.5385 45.195 11.3846 46.6584H17.2308ZM25.3077 43.4389C25.4616 43.4389 25.6154 43.5853 25.6154 43.7316C25.6154 43.878 25.4616 44.0243 25.3077 44.0243H23.6923V50.1706C23.6923 50.317 23.5385 50.4633 23.3846 50.4633C23.2308 50.4633 23.0769 50.317 23.0769 50.1706V44.0243H21.5385C21.3846 44.0243 21.2308 43.878 21.2308 43.7316C21.2308 43.5853 21.3846 43.4389 21.5385 43.4389H23.0769V41.1706C23.0769 41.0243 23.1539 40.878 23.3077 40.878C23.5385 40.878 23.6923 40.9511 23.6923 41.1706V43.4389H25.3077ZM35.3077 46.3658V50.0975C35.3077 50.2438 35.1539 50.3901 35 50.3901C34.8462 50.3901 34.6923 50.2438 34.6923 50.0975V46.3658C34.6923 45.1219 33.9231 43.878 32.4616 43.878C30.6154 43.878 29.7692 45.4145 29.8462 47.0243C29.8462 47.0975 29.8462 47.2438 29.8462 47.2438V50.0243C29.8462 50.1706 29.7692 50.317 29.6154 50.317C29.3846 50.317 29.2308 50.2438 29.2308 50.0243V37.9511C29.2308 37.8048 29.3846 37.6584 29.5385 37.6584C29.6923 37.6584 29.8462 37.8048 29.8462 37.9511V44.8292C30.3846 43.9511 31.3077 43.3658 32.3846 43.3658C34.3077 43.2926 35.3077 44.8292 35.3077 46.3658ZM46.3077 46.878C46.3077 47.0243 46.1539 47.1706 46 47.1706H39.8462C40 48.6341 41.1539 49.9511 42.7692 49.9511C43.8462 49.9511 44.6923 49.5853 45.3077 48.7072C45.3846 48.5609 45.5385 48.4877 45.6923 48.5609C45.7692 48.6341 45.8462 48.7072 45.8462 48.7804C45.8462 48.8536 45.8462 48.9267 45.7692 48.9999C45.1539 50.0243 43.9231 50.5365 42.6923 50.5365C40.6154 50.5365 39.1539 48.7804 39.1539 46.878C39.1539 44.9755 40.6154 43.2194 42.6923 43.2194C44.7692 43.2926 46.3077 45.0487 46.3077 46.878ZM45.6154 46.6584C45.4616 45.195 44.3077 43.878 42.6923 43.878C41.0769 43.878 39.9231 45.195 39.7693 46.6584H45.6154ZM53.7692 43.7316C53.7692 43.9511 53.6923 44.0243 53.4616 44.0243C51.6923 44.2438 50.8462 45.6341 50.8462 47.317V50.0975C50.8462 50.2438 50.7692 50.3901 50.6154 50.3901C50.3846 50.3901 50.2308 50.317 50.2308 50.0975V43.7316C50.2308 43.5853 50.3077 43.4389 50.4616 43.4389C50.6923 43.4389 50.8462 43.5121 50.8462 43.7316V45.0487C51.3846 44.2438 52.3846 43.4389 53.3846 43.4389C53.6154 43.4389 53.7692 43.5121 53.7692 43.7316ZM63.8462 46.878C63.8462 47.0243 63.6923 47.1706 63.5385 47.1706H57.3846C57.5385 48.6341 58.6923 49.9511 60.3077 49.9511C61.3846 49.9511 62.2308 49.5853 62.8462 48.7072C62.9231 48.5609 63.0769 48.4877 63.2308 48.5609C63.3077 48.6341 63.3846 48.7072 63.3846 48.7804C63.3846 48.8536 63.3846 48.9267 63.3077 48.9999C62.6923 50.0243 61.4616 50.5365 60.2308 50.5365C58.1539 50.5365 56.6923 48.7804 56.6923 46.878C56.6923 44.9755 58.1539 43.2194 60.2308 43.2194C62.3846 43.2926 63.8462 45.0487 63.8462 46.878ZM63.1539 46.6584C63 45.195 61.8462 43.878 60.2308 43.878C58.6154 43.878 57.4616 45.195 57.3077 46.6584H63.1539ZM73.6923 43.8048V50.1706C73.6923 50.317 73.5385 50.4633 73.3846 50.4633C73.2308 50.4633 73.0769 50.317 73.0769 50.1706V48.9267C72.6154 49.878 71.6923 50.6097 70.5385 50.6097C68.6923 50.6097 67.6923 49.1462 67.6923 47.5365V43.8048C67.6923 43.6584 67.8462 43.5121 68 43.5121C68.1539 43.5121 68.3077 43.6584 68.3077 43.8048V47.5365C68.3077 48.7804 69.0769 50.0243 70.5385 50.0243C72.6154 50.0243 73.0769 48.195 73.0769 46.1462V43.8048C73.0769 43.6584 73.2308 43.4389 73.4616 43.5121C73.6154 43.5121 73.6923 43.6584 73.6923 43.8048ZM89.2308 46.3658V50.0975C89.2308 50.2438 89.0769 50.3901 88.9231 50.3901C88.7692 50.3901 88.6154 50.2438 88.6154 50.0975V46.3658C88.6154 45.1219 87.8462 43.878 86.3846 43.878C84.5385 43.878 83.8462 45.7804 83.8462 47.2438V50.0975C83.8462 50.2438 83.6923 50.3901 83.5385 50.3901C83.3846 50.3901 83.2308 50.2438 83.2308 50.0975V46.3658C83.2308 45.1219 82.4616 43.878 81 43.878C79.1539 43.878 78.3846 45.2682 78.4616 47.0975C78.4616 47.1706 78.4616 47.2438 78.4616 47.2438V50.0243C78.4616 50.1706 78.3846 50.317 78.2308 50.317C78 50.317 77.8462 50.2438 77.8462 50.0243V43.6584C77.8462 43.5121 77.9231 43.3658 78.0769 43.3658C78.3077 43.3658 78.4616 43.4389 78.4616 43.6584V44.756C79 43.878 79.9231 43.2926 81 43.2926C82.2308 43.2926 83.2308 44.0243 83.6154 45.1219C84.1539 44.0243 85.0769 43.2926 86.3846 43.2926C88.1539 43.2926 89.2308 44.8292 89.2308 46.3658Z" fill="white"/>
<g opacity="0.6">
<g opacity="0.6">
<path opacity="0.6" d="M50 16.1707L39.7692 20.5609L50 26.3414L60.2308 20.5609L50 16.1707Z" fill="white"/>
</g>
</g>
<g opacity="0.45">
<g opacity="0.45">
<path opacity="0.45" d="M39.7692 20.561L50 26.3415V4.39026L39.7692 20.561Z" fill="white"/>
</g>
</g>
<g opacity="0.8">
<g opacity="0.8">
<path opacity="0.8" d="M50 4.39026V26.3415L60.2308 20.561L50 4.39026Z" fill="white"/>
</g>
</g>
<g opacity="0.45">
<g opacity="0.45">
<path opacity="0.45" d="M39.7692 22.3903L50 36.1464V28.1707L39.7692 22.3903Z" fill="white"/>
</g>
</g>
<g opacity="0.8">
<g opacity="0.8">
<path opacity="0.8" d="M50 28.1707V36.1463L60.2308 22.4634L50 28.1707Z" fill="white"/>
</g>
</g>
</svg>

<svg width="90" height="55" viewBox="0 0 90 55" fill="none" xmlns="http://www.w3.org/2000/svg"><path d="M17.846 46.878c0 .146-.154.293-.308.293h-6.153c.154 1.463 1.307 2.78 2.923 2.78 1.077 0 1.923-.366 2.538-1.244.077-.146.23-.22.385-.146.077.073.154.146.154.22 0 .073 0 .146-.077.219-.616 1.024-1.846 1.536-3.077 1.536-2.077 0-3.539-1.756-3.539-3.658 0-1.903 1.462-3.659 3.539-3.659 2.154.074 3.615 1.83 3.615 3.659zm-.615-.22c-.154-1.463-1.308-2.78-2.923-2.78-1.616 0-2.77 1.317-2.923 2.78h5.846zm8.077-3.22c.154 0 .307.147.307.294 0 .146-.153.292-.307.292h-1.616v6.147c0 .146-.154.292-.307.292-.154 0-.308-.146-.308-.292v-6.147h-1.539c-.153 0-.307-.146-.307-.292 0-.147.154-.293.307-.293h1.539V41.17c0-.147.077-.293.23-.293.232 0 .385.073.385.293v2.268h1.616zm10 2.928v3.731c0 .147-.154.293-.308.293s-.308-.146-.308-.293v-3.731c0-1.244-.769-2.488-2.23-2.488-1.847 0-2.693 1.536-2.616 3.146v3c0 .147-.077.293-.23.293-.231 0-.385-.073-.385-.293V37.951c0-.146.154-.293.307-.293.154 0 .308.147.308.293v6.878c.539-.878 1.462-1.463 2.539-1.463 1.923-.073 2.923 1.463 2.923 3zm11 .512c0 .146-.154.293-.308.293h-6.154c.154 1.463 1.308 2.78 2.923 2.78 1.077 0 1.923-.366 2.539-1.244.077-.146.23-.22.384-.146.077.073.154.146.154.22 0 .073 0 .146-.077.219-.615 1.024-1.846 1.536-3.077 1.536-2.077 0-3.538-1.756-3.538-3.658 0-1.903 1.461-3.659 3.538-3.659 2.077.074 3.616 1.83 3.616 3.659zm-.693-.22c-.153-1.463-1.307-2.78-2.923-2.78-1.615 0-2.769 1.317-2.923 2.78h5.846zm8.154-2.926c0 .22-.077.292-.307.292-1.77.22-2.616 1.61-2.616 3.293v2.78c0 .147-.077.293-.23.293-.231 0-.385-.073-.385-.293v-6.365c0-.147.077-.293.23-.293.231 0 .385.073.385.293v1.317c.539-.805 1.539-1.61 2.539-1.61.23 0 .384.073.384.293zm10.077 3.146c0 .146-.154.293-.307.293h-6.154c.154 1.463 1.307 2.78 2.923 2.78 1.077 0 1.923-.366 2.538-1.244.077-.146.23-.22.385-.146.077.073.154.146.154.22 0 .073 0 .146-.077.219-.616 1.024-1.846 1.536-3.077 1.536-2.077 0-3.539-1.756-3.539-3.658 0-1.903 1.462-3.659 3.539-3.659 2.154.074 3.615 1.83 3.615 3.659zm-.692-.22c-.154-1.463-1.308-2.78-2.923-2.78-1.616 0-2.77 1.317-2.923 2.78h5.846zm10.538-2.853v6.366c0 .146-.153.292-.307.292s-.308-.146-.308-.292v-1.244c-.462.951-1.385 1.683-2.538 1.683-1.847 0-2.847-1.464-2.847-3.074v-3.731c0-.147.154-.293.308-.293s.308.146.308.293v3.731c0 1.244.769 2.488 2.23 2.488 2.077 0 2.539-1.829 2.539-3.878v-2.341c0-.147.154-.366.385-.293.153 0 .23.146.23.293zm15.539 2.56v3.732c0 .147-.154.293-.308.293s-.308-.146-.308-.293v-3.731c0-1.244-.769-2.488-2.23-2.488-1.847 0-2.539 1.902-2.539 3.366v2.853c0 .147-.154.293-.308.293-.153 0-.307-.146-.307-.293v-3.731c0-1.244-.77-2.488-2.231-2.488-1.846 0-2.615 1.39-2.538 3.22v2.925c0 .147-.077.293-.231.293-.231 0-.385-.073-.385-.293v-6.366c0-.146.077-.292.23-.292.232 0 .386.073.386.292v1.098c.538-.878 1.461-1.463 2.538-1.463 1.23 0 2.23.731 2.615 1.829.539-1.098 1.462-1.83 2.77-1.83 1.769 0 2.846 1.537 2.846 3.074z" fill="#fff"/><path opacity=".6" d="M50 16.17l-10.23 4.39L50 26.342l10.23-5.78L50 16.17z" fill="#fff"/><path opacity=".45" d="M39.77 20.561L50 26.341V4.392L39.77 20.56z" fill="#fff"/><path opacity=".8" d="M50 4.39v21.951l10.23-5.78L50 4.391z" fill="#fff"/><path opacity=".45" d="M39.77 22.39L50 36.146v-7.975l-10.23-5.78z" fill="#fff"/><path opacity=".8" d="M50 28.17v7.976l10.23-13.683L50 28.171z" fill="#fff"/></svg>
